@extra/phlat-icons/symbolic-22/pcsx.svg

<svg xmlns="http://www.w3.org/2000/svg" version="1.1" viewBox="-2 -2 22 22"><title>Ivy icon theme</title><path stroke-linejoin="round" d="m0.007 0.007v3.429l4.573 4.571-4.573 4.573v3.428h3.429l4.571-4.571 4.572 4.571h3.428v-3.428l-4.571-4.572 4.571-4.571v-3.43h-3.427l-4.573 4.573-4.571-4.573h-3.429z" fill-rule="evenodd" stroke-linecap="round" stroke-width="3.9" fill="#f1f2f2"/></svg>

<svg xmlns="http://www.w3.org/2000/svg" viewBox="-2 -2 22 22">
    <path stroke-linejoin="round" d="M.007.007v3.429L4.58 8.007.007 12.58v3.428h3.429l4.571-4.571 4.572 4.571h3.428V12.58l-4.571-4.572 4.571-4.571V.007H12.58L8.007 4.58 3.436.007H.007z" fill-rule="evenodd" stroke-linecap="round" stroke-width="3.9" fill="#f1f2f2"/>
</svg>
